X: 13558
T: Fly By Night
R: hornpipe
M: 4/4
K: Fdorian
(3Bcd|eB B2 GEB,A,|G,B, (3EGB eB=AB|_ABGB FB (3EFE|DFCF B,2 (3Bcd|
eB B2 GEB,A,|G,B, (3EGB eB=AB|cAEC A,edc|(3BcB (3AGF E2:|
=B2|(3cec GF (3EGE (3CEC|G,CEG cedc|B2 GF (3DFD (3B,DB,|=A,B,DF B=Bcd|
eB B2 GEB,A,|G,B, (3EGB eB=AB|cAEC A,edc|(3BcB (3AGF E2:|

